X:4
T:Breabach Retreat Marches - Allan Water Set
C:Two Retreat Marches taught by Breabach to DFC 20/3/14
T:Allan Water
M:3/4
K:D
A>d|:f2 fdec|d2 A2 A>c|B2Bc df/e/|d2 c2 A>d|
f2 fdec|d2 A2 A>c|B3 ecA|1d4 A>d:|d4 c>d|:
e2 e2 cA|d2 e2 f2|g>a gefd|fg/f/ e2 a>g|
f2 fdec|d2 A2 A>c|B3 ecA|1d4 c>d:|2d4 A>d|
T:Dark Lowers the Night
K:Bm
d>c|:B2 B>c de|f2 f2 ga|f2 e>d cB|c4 d>c|
B2 B>c de|f2 f2 g>a|f2 fedc|1B2 B2 d>c:|2B2 B2 a>g|:
f2 f2 g2|a2 a2 a>g|f2 edcB|c2 c2 d>c|
B2 B>c de|f2 f2 g>a|f2 fedc|1B2 B2 a>g:|2B2 B2 d>c|

